X:1
T:Title
%%score { ( 1 4 ) | ( 2 3 ) }
L:1/8
M:4/4
K:Eb
V:1 treble nm="Grand Piano"
V:4 treble 
V:2 bass 
V:3 bass 
V:1
 z4 z2[Q:1/4=100] E2 | G>G G>G G>F E>F |[M:7/8] G>[FA][GB]>[Ac] [GB]3 |[M:1/8] [GB] | %4
[M:4/4] [Ac]>[ce] [Bd]>[Ac] [GB]>[_G=A] [=GB]>G | A>G F>E [B,DF]2 [AB]2 | [EGB]2 [Ge]2 e2 c2 | %7
 d>d d>d d4 | [DFA]2 [DAd]2 [DAd]2 [B,FA]2 | [B,EG]>[B,FA] [GB]>[Ac] [GB]4 | E>E E>F G2 [GB]2 | %11
 z4 [=Af]4 | d>d c>d e>B c>A |[M:3/4] G2 [DF]2 E2 |] %14
V:2
 z4 z2 [E,G,]2 | [E,B,E]>[E,B,E] [E,B,E]>[E,B,E] [E,B,E]>[E,A,E] [E,G,]>[E,A,E] | %2
[M:7/8] [E,B,E]>[E,B,][E,E]>[E,E] [E,E]3 |[M:1/8] [E,E] | %4
[M:4/4] [A,E]>[A,E] [A,E]>[A,E] [E,E]>[E,E] [E,E]>[E,B,E] | [F,B,D]>[E,B,E] [D,B,]>[C,=A,C] z2 D2 | %6
 E,2 [E,B,]2[K:treble] [A,CA]2 [A,EA]2 | [B,A]>[B,A] [B,FA]>[B,FA] [B,FA]4 | B,,2 B,,2 B,,2 B,,2 | %9
 E,>E, [E,E]>[E,E] [E,E]4 | [E,G,]>[E,G,] [E,G,]>[E,A,E] [E,B,E]2 [E,E]2 | %11
 [A,EA]>[A,EA] [A,EA]>[A,EA][K:bass] E2 z2 | %12
 [B,A]>[B,A] [A,B,F]>[A,B,F] [G,B,E]>[K:bass][G,E] [A,E]>[A,CE] |[M:3/4] [B,E]2 [B,,A,]2 [E,G,]2 |] %14
V:3
 x8 | x8 |[M:7/8] x7 |[M:1/8] x |[M:4/4] x8 | z4 B,,4 | x4[K:treble] x4 | x8 | x8 | x8 | x8 | %11
 z4[K:bass] F,4 | x11/2[K:bass] x5/2 |[M:3/4] x6 |] %14
V:4
 x8 | x8 |[M:7/8] x7 |[M:1/8] x |[M:4/4] x8 | x8 | x8 | x8 | x8 | x8 | x8 | c>c c>c z2 C2 | x8 | %13
[M:3/4] x6 |] %14

